build/img/sprite/icon-improvement.svg

<svg width="32" height="32" viewBox="0 0 32 32" fill="none" xmlns="http://www.w3.org/2000/svg">
<rect x="7.5" y="5.5" width="1" height="5" rx="0.5" stroke="#686778"/>
<rect x="7.5" y="13.5" width="1" height="5" rx="0.5" stroke="#686778"/>
<rect x="7.5" y="21.5" width="1" height="5" rx="0.5" stroke="#686778"/>
<rect x="13.5" y="5.5" width="1" height="5" rx="0.5" stroke="#686778"/>
<rect x="13.5" y="13.5" width="1" height="5" rx="0.5" stroke="#686778"/>
<rect x="0.5" y="0.5" width="21" height="1" rx="0.5" stroke="#686778"/>
<rect x="0.5" y="30.5" width="31" height="1" rx="0.5" stroke="#686778"/>
<path fill-rule="evenodd" clip-rule="evenodd" d="M4 2H18V22.1018C18.3407 22.0351 18.6937 22 19.0554 22C19.378 22 19.6937 22.0279 20 22.0813V2V0H18H4H2V2V30V32H4H10.15C10.0672 32 10 31.9328 10 31.85V30H4V2Z" fill="#686778"/>
<path fill-rule="evenodd" clip-rule="evenodd" d="M19.0554 24C17.8381 24 16.8219 24.618 16.2911 25.4687C15.8395 26.1927 15.007 26.578 14.17 26.4639C14.0768 26.4512 13.9803 26.4444 13.881 26.4444C12.7336 26.4444 12 27.2961 12 28.1111V30H26.1111V28.6109C26.1031 28.5817 26.0958 28.5523 26.0891 28.5226C25.9955 28.1072 25.5513 27.6667 24.877 27.6667C24.7831 27.6667 24.6937 27.6756 24.609 27.6917C23.5245 27.8979 22.4388 27.2498 22.129 26.1628C21.7926 24.982 20.5977 24 19.0554 24ZM14.5943 24.4101C14.5617 24.4624 14.5013 24.4906 14.4402 24.4822C14.2576 24.4573 14.0709 24.4444 13.881 24.4444C11.7376 24.4444 10 26.0861 10 28.1111V31.85C10 31.9328 10.0672 32 10.15 32H27.9611C28.044 32 28.1111 31.9328 28.1111 31.85V28.1469C28.1111 28.1271 28.0951 28.1111 28.0753 28.1111C28.0584 28.1111 28.0439 28.0993 28.0402 28.0828C27.729 26.7023 26.431 25.6667 24.877 25.6667C24.6573 25.6667 24.4428 25.6874 24.2354 25.7269C24.1548 25.7422 24.075 25.6936 24.0525 25.6147C23.4591 23.5325 21.4467 22 19.0554 22C17.1551 22 15.494 22.9678 14.5943 24.4101Z" fill="#686778"/>
<rect x="27.5" y="21.5" width="10" height="1" rx="0.5" transform="rotate(90 27.5 21.5)" stroke="#686778"/>
<rect x="23" y="8" width="8" height="14" rx="4" stroke="#686778" stroke-width="2"/>
</svg>

<svg width="32" height="32" fill="none" xmlns="http://www.w3.org/2000/svg"><rect x="7.5" y="5.5" width="1" height="5" rx=".5" stroke="#686778"/><rect x="7.5" y="13.5" width="1" height="5" rx=".5" stroke="#686778"/><rect x="7.5" y="21.5" width="1" height="5" rx=".5" stroke="#686778"/><rect x="13.5" y="5.5" width="1" height="5" rx=".5" stroke="#686778"/><rect x="13.5" y="13.5" width="1" height="5" rx=".5" stroke="#686778"/><rect x=".5" y=".5" width="21" height="1" rx=".5" stroke="#686778"/><rect x=".5" y="30.5" width="31" height="1" rx=".5" stroke="#686778"/><path fill-rule="evenodd" clip-rule="evenodd" d="M4 2h14v20.102a5.49 5.49 0 012-.02V0H2v32h8.15a.15.15 0 01-.15-.15V30H4V2z" fill="#686778"/><path fill-rule="evenodd" clip-rule="evenodd" d="M19.055 24c-1.217 0-2.233.618-2.764 1.469a2.157 2.157 0 01-2.121.995 2.14 2.14 0 00-.289-.02c-1.147 0-1.881.852-1.881 1.667V30h14.111v-1.39a1.997 1.997 0 01-.022-.087c-.093-.416-.538-.856-1.212-.856-.094 0-.183.009-.268.025a2.16 2.16 0 01-2.48-1.53C21.793 24.983 20.598 24 19.055 24zm-4.46.41a.156.156 0 01-.155.072 4.137 4.137 0 00-.559-.038c-2.143 0-3.881 1.642-3.881 3.667v3.739c0 .083.067.15.15.15h17.811a.15.15 0 00.15-.15v-3.703a.036.036 0 00-.036-.036.036.036 0 01-.035-.028c-.311-1.38-1.609-2.416-3.163-2.416-.22 0-.434.02-.642.06a.16.16 0 01-.183-.112C23.46 23.533 21.447 22 19.055 22c-1.9 0-3.561.968-4.46 2.41z" fill="#686778"/><rect x="27.5" y="21.5" width="10" height="1" rx=".5" transform="rotate(90 27.5 21.5)" stroke="#686778"/><rect x="23" y="8" width="8" height="14" rx="4" stroke="#686778" stroke-width="2"/></svg>
